X:451
T:Reel 451
M:4/4
K:Gmaj
L:1/8
G>B (3BAB cedc|B>B (3BBB c2c2|BcBG G>B (3BAB |cABG A2Bc|d>A (3AAc A>G (3AGF |GBdg e2d2|B>c (3ded c2Bc| (3ABA =fd c2BG|A>F (3AGF A>F (3AGA |B>A (3FED ADBA|D>F (3FGF A>F (3AGA |A>F (3FED A2A2|B>D (3DED G2BG|ADFD ADB2|G>E (3FED G2BG|A>D (3DED E2 (3AAA |
